64x64/apps/com.github.mdh34.hackup.svg

<svg height="64" width="64" xmlns="http://www.w3.org/2000/svg"><rect height="58" opacity=".2" rx="2.9" transform="matrix(0 -1 -1 0 0 0)" width="58" x="-62" y="-61"/><rect fill="#ff822e" height="58" rx="2.9" transform="matrix(0 -1 -1 0 0 0)" width="58" x="-61" y="-61"/><path d="m29 20v36h6v-36z" opacity=".2"/><path d="m31.998 10a1.857 1.765 0 0 0 -1.56.811l-11.144 16.47a1.857 1.765 0 0 0 1.563 2.719h22.286a1.857 1.765 0 0 0 1.563-2.718l-11.144-16.47a1.857 1.765 0 0 0 -1.564-.812z" fill-rule="evenodd" opacity=".2"/><g fill="#f4f4f7"><path d="m29 19v36h6v-36z"/><path d="m31.998 9a1.857 1.765 0 0 0 -1.56.811l-11.144 16.47a1.857 1.765 0 0 0 1.563 2.719h22.286a1.857 1.765 0 0 0 1.563-2.718l-11.144-16.47a1.857 1.765 0 0 0 -1.564-.812z" fill-rule="evenodd"/><path d="m5.898 3a2.891 2.891 0 0 0 -2.898 2.898v1a2.891 2.891 0 0 1 2.898-2.898h52.204a2.891 2.891 0 0 1 2.898 2.898v-1a2.891 2.891 0 0 0 -2.898-2.898z" opacity=".2"/></g></svg>

<svg height="64" width="64" xmlns="http://www.w3.org/2000/svg">
    <rect height="58" opacity=".2" rx="2.9" transform="matrix(0 -1 -1 0 0 0)" width="58" x="-62" y="-61"/>
    <rect fill="#ff822e" height="58" rx="2.9" transform="matrix(0 -1 -1 0 0 0)" width="58" x="-61" y="-61"/>
    <path d="M29 20v36h6V20z" opacity=".2"/>
    <path d="M31.998 10a1.857 1.765 0 0 0-1.56.811l-11.144 16.47A1.857 1.765 0 0 0 20.857 30h22.286a1.857 1.765 0 0 0 1.563-2.718l-11.144-16.47A1.857 1.765 0 0 0 31.998 10z" fill-rule="evenodd" opacity=".2"/>
    <g fill="#f4f4f7">
        <path d="M29 19v36h6V19z"/>
        <path d="M31.998 9a1.857 1.765 0 0 0-1.56.811l-11.144 16.47A1.857 1.765 0 0 0 20.857 29h22.286a1.857 1.765 0 0 0 1.563-2.718L33.562 9.812A1.857 1.765 0 0 0 31.998 9z" fill-rule="evenodd"/>
        <path d="M5.898 3A2.891 2.891 0 0 0 3 5.898v1A2.891 2.891 0 0 1 5.898 4h52.204A2.891 2.891 0 0 1 61 6.898v-1A2.891 2.891 0 0 0 58.102 3z" opacity=".2"/>
    </g>
</svg>
